src/css/fonts/SVGs/iota_icons/wallet_icon.svg

<svg width="48" height="48" viewBox="0 0 48 48" fill="none" xmlns="http://www.w3.org/2000/svg">
<path fill-rule="evenodd" clip-rule="evenodd" d="M24 11C26.2091 11 28 12.7909 28 15L30 15C33.3137 15 36 17.6863 36 21V30C36 33.3137 33.3137 36 30 36H18C14.6863 36 12 33.3137 12 30V21C12 17.6863 14.6863 15 18 15H20C20 12.7909 21.7909 11 24 11ZM34 28V23H30.5C29.1193 23 28 24.1193 28 25.5C28 26.8807 29.1193 28 30.5 28H34ZM34 21H30.5C28.0147 21 26 23.0147 26 25.5C26 27.9853 28.0147 30 30.5 30H34C34 32.2091 32.2091 34 30 34H18C15.7909 34 14 32.2091 14 30V21C14 18.7909 15.7909 17 18 17H30C32.2091 17 34 18.7909 34 21Z" fill="black"/>
</svg>

<svg xmlns="http://www.w3.org/2000/svg" viewBox="0 0 48 48">
  <path fill-rule="evenodd" clip-rule="evenodd" d="M24 11a4 4 0 0 1 4 4h2a6 6 0 0 1 6 6v9a6 6 0 0 1-6 6H18a6 6 0 0 1-6-6v-9a6 6 0 0 1 6-6h2a4 4 0 0 1 4-4Zm10 17v-5h-3.5a2.5 2.5 0 0 0 0 5H34Zm0-7h-3.5a4.5 4.5 0 1 0 0 9H34a4 4 0 0 1-4 4H18a4 4 0 0 1-4-4v-9a4 4 0 0 1 4-4h12a4 4 0 0 1 4 4Z"/>
</svg>
